content/about/community/customers/namely.svg

<svg width="785" height="248" xmlns="http://www.w3.org/2000/svg"><g fill="none" fill-rule="evenodd"><path d="M100.792 210.982h-17.96c-3.847 0-6.596-.733-9.529-5.68l-41.782-72.206c-.735-1.1-1.101-1.466-1.651-1.466-.549 0-.918.366-.918 1.466v74.221a3.674 3.674 0 0 1-3.663 3.665H3.663A3.674 3.674 0 0 1 0 207.317V81.783a6.96 6.96 0 0 1 6.962-6.965h18.51c3.663 0 5.497 1.832 7.697 5.68l43.433 75.506c.733 1.099.916 1.465 1.465 1.465.369 0 .918-.366.918-1.648v-77.52c0-2.018 1.649-3.483 3.663-3.483h21.626c2.015 0 3.666 1.465 3.666 3.483v125.717c0 3.849-3.299 6.964-7.148 6.964M181.785 166.084h-10.446c-12.828 0-16.127 4.398-16.127 13.377v1.649c0 7.697 3.849 9.164 11.546 9.164 5.496 0 10.627-1.833 15.027-4.031v-20.159zm25.473 44.898h-20.525a3.676 3.676 0 0 1-3.666-3.665v-2.933c-7.147 5.133-14.478 8.246-25.472 8.246-15.943 0-31.337-7.696-31.337-31.52v-1.649c0-21.443 13.743-30.971 45.081-30.971h9.897v-6.598c0-10.444-5.133-12.645-13.746-12.645-11.729 0-24.74.733-30.422 1.282h-.916c-1.831 0-3.299-.915-3.299-3.296v-14.845c0-2.017 1.285-3.482 3.482-4.032 6.782-1.651 19.61-3.848 31.705-3.848 26.39 0 42.883 10.627 42.883 37.384v65.425a3.677 3.677 0 0 1-3.665 3.665zM365.588 210.982h-22.173c-2.018 0-3.668-1.831-3.668-3.849v-62.492c0-11.729-2.747-15.211-11.177-15.211-3.116 0-8.613.732-14.112 3.299.366 3.666.549 7.881.549 11.912v62.492c0 2.018-1.648 3.849-3.663 3.849h-22.175c-2.017 0-3.851-1.831-3.851-3.849v-62.492c0-11.729-2.198-15.211-10.628-15.211-3.482 0-8.246 1.834-13.928 4.765v72.938c0 2.018-1.649 3.849-3.663 3.849h-22.176c-2.015 0-3.849-1.831-3.849-3.849v-97.495a3.675 3.675 0 0 1 3.666-3.665h20.891a3.674 3.674 0 0 1 3.665 3.665v4.032c7.697-5.131 16.494-9.162 27.123-9.162 9.714 0 16.493 2.747 21.624 8.979 10.63-6.049 17.96-8.979 29.873-8.979 24.189 0 31.52 16.126 31.52 40.133v62.492c0 2.018-1.832 3.849-3.848 3.849M449.512 148.673c0-13.56-6.23-20.342-16.493-20.342-10.079 0-16.86 6.965-16.86 20.342v.733h33.353v-.733zm25.107 19.06h-58.46v.366c0 10.446 4.398 19.975 18.876 19.975 11.546 0 27.856-.915 35.187-1.649h.549c2.015 0 3.482.916 3.482 2.931v13.929c0 2.933-.732 4.215-3.849 4.948-11.728 2.932-21.626 4.397-37.569 4.397-22.175 0-45.999-11.728-45.999-47.097v-12.829c0-29.503 17.227-48.196 46.365-48.196 30.056 0 45.267 20.525 45.267 48.196v10.63c0 2.75-1.465 4.399-3.849 4.399zM522.077 210.982h-22.358c-2.015 0-3.847-1.831-3.847-3.849V74.086c0-2.017 1.832-3.666 3.847-3.666h22.358c2.015 0 3.483 1.649 3.483 3.666v133.047c0 2.018-1.468 3.849-3.483 3.849M638.994 110.188L608.208 218.13c-5.681 19.792-13.194 29.87-40.137 29.87-6.778 0-17.592-1.465-22.173-2.93-2.016-.733-3.848-1.285-3.848-3.3v-14.844c0-2.016 1.648-3.482 3.666-3.482h.366c6.046.366 16.859 1.466 22.908 1.466 6.596 0 9.897-2.199 12.095-9.53l1.648-5.679h-2.747c-6.781 0-12.464-1.102-17.045-17.046l-24.19-82.467c-.184-.55-.184-.916-.184-1.282 0-1.834 1.102-2.933 3.666-2.933h24.373c1.832 0 3.117 1.648 3.483 3.482l16.495 68.908c.55 2.563 1.099 3.481 2.198 3.481h1.649l17.042-72.389c.366-1.834 1.834-3.482 3.85-3.482h24.374c1.831 0 3.48 1.465 3.48 3.299 0 .366-.183.549-.183.916" fill="#14212D"/><path d="M745.885.604L732.73 28.352c-.506-.604-.634-.939-1.202-1.497a22.557 22.557 0 0 0-7.086-4.831c-2.653-1.161-5.51-1.749-8.499-1.749-4.404 0-8.392 1.167-12.021 3.493-3.629 2.327-6.328 5.479-8.111 9.444l-24.498 54.473 39.281 18.251 13.136-27.661c.511.641.499.921 1.097 1.507 2.053 2.06 4.453 3.668 7.177 4.821 2.748 1.177 5.614 1.754 8.629 1.754 4.375 0 8.315-1.191 11.806-3.595 3.503-2.39 6.189-5.572 8.112-9.537L785 18.784 745.885.604" fill="#0073DD"/></g></svg>

<?xml version="1.0" encoding="UTF-8" standalone="no"?>
<svg width="785px" height="248px" viewBox="0 0 785 248" version="1.1" xmlns="http://www.w3.org/2000/svg" xmlns:xlink="http://www.w3.org/1999/xlink">
    <!-- Generator: Sketch 48.2 (47327) - http://www.bohemiancoding.com/sketch -->
    <title>Namely_logo_RGB</title>
    <desc>Created with Sketch.</desc>
    <defs></defs>
    <g id="Page-1" stroke="none" stroke-width="1" fill="none" fill-rule="evenodd">
        <g id="Namely_logo_RGB">
            <path d="M100.792,210.982 L82.832,210.982 C78.985,210.982 76.236,210.249 73.303,205.302 L31.521,133.096 C30.786,131.996 30.42,131.63 29.87,131.63 C29.321,131.63 28.952,131.996 28.952,133.096 L28.952,207.317 C28.952,209.333 27.304,210.982 25.289,210.982 L3.663,210.982 C1.648,210.982 0,209.333 0,207.317 L0,81.783 C0,77.934 3.114,74.818 6.962,74.818 L25.472,74.818 C29.135,74.818 30.969,76.65 33.169,80.498 L76.602,156.004 C77.335,157.103 77.518,157.469 78.067,157.469 C78.436,157.469 78.985,157.103 78.985,155.821 L78.985,78.301 C78.985,76.283 80.634,74.818 82.648,74.818 L104.274,74.818 C106.289,74.818 107.94,76.283 107.94,78.301 L107.94,204.018 C107.94,207.867 104.641,210.982 100.792,210.982" id="Fill-1" fill="#14212D"></path>
            <path d="M181.785,166.084 L171.339,166.084 C158.511,166.084 155.212,170.482 155.212,179.461 L155.212,181.11 C155.212,188.807 159.061,190.274 166.758,190.274 C172.254,190.274 177.385,188.441 181.785,186.243 L181.785,166.084 Z M207.258,210.982 L186.733,210.982 C184.716,210.982 183.067,209.333 183.067,207.317 L183.067,204.384 C175.92,209.517 168.589,212.63 157.595,212.63 C141.652,212.63 126.258,204.934 126.258,181.11 L126.258,179.461 C126.258,158.018 140.001,148.49 171.339,148.49 L181.236,148.49 L181.236,141.892 C181.236,131.448 176.103,129.247 167.49,129.247 C155.761,129.247 142.75,129.98 137.068,130.529 L136.152,130.529 C134.321,130.529 132.853,129.614 132.853,127.233 L132.853,112.388 C132.853,110.371 134.138,108.906 136.335,108.356 C143.117,106.705 155.945,104.508 168.04,104.508 C194.43,104.508 210.923,115.135 210.923,141.892 L210.923,207.317 C210.923,209.333 209.272,210.982 207.258,210.982 Z" id="Fill-2" fill="#14212D"></path>
            <path d="M365.588,210.982 L343.415,210.982 C341.397,210.982 339.747,209.151 339.747,207.133 L339.747,144.641 C339.747,132.912 337,129.43 328.57,129.43 C325.454,129.43 319.957,130.162 314.458,132.729 C314.824,136.395 315.007,140.61 315.007,144.641 L315.007,207.133 C315.007,209.151 313.359,210.982 311.344,210.982 L289.169,210.982 C287.152,210.982 285.318,209.151 285.318,207.133 L285.318,144.641 C285.318,132.912 283.12,129.43 274.69,129.43 C271.208,129.43 266.444,131.264 260.762,134.195 L260.762,207.133 C260.762,209.151 259.113,210.982 257.099,210.982 L234.923,210.982 C232.908,210.982 231.074,209.151 231.074,207.133 L231.074,109.638 C231.074,107.621 232.723,105.973 234.74,105.973 L255.631,105.973 C257.648,105.973 259.296,107.621 259.296,109.638 L259.296,113.67 C266.993,108.539 275.79,104.508 286.419,104.508 C296.133,104.508 302.912,107.255 308.043,113.487 C318.673,107.438 326.003,104.508 337.916,104.508 C362.105,104.508 369.436,120.634 369.436,144.641 L369.436,207.133 C369.436,209.151 367.604,210.982 365.588,210.982" id="Fill-3" fill="#14212D"></path>
            <path d="M449.512,148.673 C449.512,135.113 443.282,128.331 433.019,128.331 C422.94,128.331 416.159,135.296 416.159,148.673 L416.159,149.406 L449.512,149.406 L449.512,148.673 Z M474.619,167.733 L416.159,167.733 L416.159,168.099 C416.159,178.545 420.557,188.074 435.035,188.074 C446.581,188.074 462.891,187.159 470.222,186.425 C470.404,186.425 470.588,186.425 470.771,186.425 C472.786,186.425 474.253,187.341 474.253,189.356 L474.253,203.285 C474.253,206.218 473.521,207.5 470.404,208.233 C458.676,211.165 448.778,212.63 432.835,212.63 C410.66,212.63 386.836,200.902 386.836,165.533 L386.836,152.704 C386.836,123.201 404.063,104.508 433.201,104.508 C463.257,104.508 478.468,125.033 478.468,152.704 L478.468,163.334 C478.468,166.084 477.003,167.733 474.619,167.733 Z" id="Fill-4" fill="#14212D"></path>
            <path d="M522.077,210.982 L499.719,210.982 C497.704,210.982 495.872,209.151 495.872,207.133 L495.872,74.086 C495.872,72.069 497.704,70.42 499.719,70.42 L522.077,70.42 C524.092,70.42 525.56,72.069 525.56,74.086 L525.56,207.133 C525.56,209.151 524.092,210.982 522.077,210.982" id="Fill-5" fill="#14212D"></path>
            <g id="Group-9" transform="translate(538.000000, 0.000000)">
                <path d="M100.994,110.188 L70.208,218.13 C64.527,237.922 57.014,248 30.071,248 C23.293,248 12.479,246.535 7.898,245.07 C5.882,244.337 4.05,243.785 4.05,241.77 L4.05,226.926 C4.05,224.91 5.698,223.444 7.716,223.444 C7.898,223.444 7.898,223.444 8.082,223.444 C14.128,223.81 24.941,224.91 30.99,224.91 C37.586,224.91 40.887,222.711 43.085,215.38 L44.733,209.701 L41.986,209.701 C35.205,209.701 29.522,208.599 24.941,192.655 L0.751,110.188 C0.567,109.638 0.567,109.272 0.567,108.906 C0.567,107.072 1.669,105.973 4.233,105.973 L28.606,105.973 C30.438,105.973 31.723,107.621 32.089,109.455 L48.584,178.363 C49.134,180.926 49.683,181.844 50.782,181.844 L50.965,181.844 C51.331,181.844 51.515,181.844 51.697,181.844 C52.247,181.844 52.431,181.844 52.431,181.844 L69.473,109.455 C69.839,107.621 71.307,105.973 73.323,105.973 L97.697,105.973 C99.528,105.973 101.177,107.438 101.177,109.272 C101.177,109.638 100.994,109.821 100.994,110.188" id="Fill-6" fill="#14212D"></path>
                <path d="M207.885,0.604 L194.73,28.352 C194.224,27.748 194.096,27.413 193.528,26.855 C191.475,24.794 189.125,23.187 186.442,22.024 C183.789,20.863 180.932,20.275 177.943,20.275 C173.539,20.275 169.551,21.442 165.922,23.768 C162.293,26.095 159.594,29.247 157.811,33.212 L133.313,87.685 L172.594,105.936 L185.73,78.275 C186.241,78.916 186.229,79.196 186.827,79.782 C188.88,81.842 191.28,83.45 194.004,84.603 C196.752,85.78 199.618,86.357 202.633,86.357 C207.008,86.357 210.948,85.166 214.439,82.762 C217.942,80.372 220.628,77.19 222.551,73.225 L247,18.784 L207.885,0.604" id="Fill-8" fill="#0073DD"></path>
            </g>
        </g>
    </g>
</svg>
